tools/download-figma-icons/icons/outlined-large/eye.svg

<svg width="64" height="64" viewBox="0 0 64 64" fill="none" xmlns="http://www.w3.org/2000/svg">
<path fill-rule="evenodd" clip-rule="evenodd" d="M8.39001 32.591C10.985 35.853 20.779 47.133 32.133 47.133C43.487 47.133 53.281 35.855 55.876 32.592C53.281 29.329 43.487 18.05 32.133 18.05C20.759 18.05 10.981 29.327 8.39001 32.591ZM57.104 20.663C57.668 20.054 58.616 20.02 59.224 20.583C59.831 21.146 59.867 22.095 59.305 22.702L55.16 27.174C57.451 29.604 58.826 31.494 58.987 31.719C59.361 32.241 59.361 32.943 58.987 33.465C58.5 34.146 46.892 50.133 32.133 50.133C17.375 50.133 5.76701 34.146 5.28001 33.465C4.90601 32.943 4.90601 32.241 5.28001 31.719C5.44901 31.483 6.95901 29.403 9.47301 26.788L5.68701 22.702C5.12401 22.095 5.16001 21.146 5.76801 20.583C6.37501 20.02 7.32301 20.054 7.88801 20.663L11.612 24.681C13.66 22.773 16.139 20.778 18.935 19.097L16.5 14.068C16.14 13.322 16.451 12.425 17.197 12.064C17.94 11.704 18.839 12.015 19.201 12.761L21.573 17.662C24.473 16.255 27.646 15.273 30.996 15.088V9.5C30.996 8.671 31.668 8 32.496 8C33.324 8 33.996 8.671 33.996 9.5V15.144C37.304 15.442 40.428 16.5 43.277 17.955L45.79 12.761C46.153 12.015 47.052 11.703 47.794 12.064C48.54 12.425 48.852 13.322 48.491 14.068L45.894 19.435C48.639 21.152 51.053 23.157 53.041 25.047L57.104 20.663ZM32.133 40.8546C27.577 40.8546 23.87 37.1476 23.87 32.5916C23.87 28.0356 27.577 24.3286 32.133 24.3286C36.69 24.3286 40.397 28.0356 40.397 32.5916C40.397 37.1476 36.69 40.8546 32.133 40.8546ZM32.133 21.3286C25.923 21.3286 20.87 26.3816 20.87 32.5916C20.87 38.8016 25.923 43.8546 32.133 43.8546C38.344 43.8546 43.397 38.8016 43.397 32.5916C43.397 26.3816 38.344 21.3286 32.133 21.3286ZM32.133 26.9206C31.305 26.9206 30.633 27.5916 30.633 28.4206C30.633 29.2496 31.305 29.9206 32.133 29.9206C33.607 29.9206 34.805 31.1196 34.805 32.5916C34.805 34.0646 33.607 35.2626 32.133 35.2626C30.66 35.2626 29.462 34.0646 29.462 32.5916C29.462 31.7636 28.79 31.0916 27.962 31.0916C27.134 31.0916 26.462 31.7636 26.462 32.5916C26.462 35.7186 29.006 38.2626 32.133 38.2626C35.261 38.2626 37.805 35.7186 37.805 32.5916C37.805 29.4646 35.261 26.9206 32.133 26.9206Z" fill="black"/>
</svg>

<svg width="64" height="64" viewBox="0 0 64 64" fill="none" xmlns="http://www.w3.org/2000/svg"><path fill-rule="evenodd" clip-rule="evenodd" d="M8.39 32.591c2.595 3.262 12.389 14.542 23.743 14.542s21.148-11.278 23.743-14.541C53.281 29.329 43.487 18.05 32.133 18.05c-11.374 0-21.152 11.277-23.743 14.541Zm48.714-11.928a1.5 1.5 0 1 1 2.201 2.039l-4.145 4.472c2.291 2.43 3.666 4.32 3.827 4.545a1.499 1.499 0 0 1 0 1.746c-.487.681-12.095 16.668-26.854 16.668-14.758 0-26.366-15.987-26.853-16.668a1.499 1.499 0 0 1 0-1.746c.169-.236 1.679-2.316 4.193-4.931l-3.786-4.086a1.5 1.5 0 1 1 2.201-2.039l3.724 4.018c2.048-1.908 4.527-3.903 7.323-5.584L16.5 14.068a1.501 1.501 0 0 1 2.701-1.307l2.372 4.901c2.9-1.407 6.073-2.389 9.423-2.574V9.5a1.5 1.5 0 1 1 3 0v5.644c3.308.298 6.432 1.356 9.281 2.811l2.513-5.194a1.5 1.5 0 1 1 2.701 1.307l-2.597 5.367c2.745 1.717 5.159 3.722 7.147 5.612l4.063-4.384ZM32.133 40.855c-4.556 0-8.263-3.707-8.263-8.263s3.707-8.263 8.263-8.263c4.557 0 8.264 3.707 8.264 8.263s-3.707 8.263-8.264 8.263Zm0-19.526c-6.21 0-11.263 5.053-11.263 11.263s5.053 11.263 11.263 11.263c6.211 0 11.264-5.053 11.264-11.263s-5.053-11.263-11.264-11.263Zm0 5.592a1.5 1.5 0 1 0 0 3 2.675 2.675 0 0 1 2.672 2.67 2.674 2.674 0 0 1-2.672 2.672 2.674 2.674 0 0 1-2.671-2.671 1.5 1.5 0 0 0-3 0 5.677 5.677 0 0 0 5.671 5.67 5.678 5.678 0 0 0 5.672-5.67 5.678 5.678 0 0 0-5.672-5.671Z" fill="currentColor"/></svg>
